src/pos-icons/cloud-sync-outline.svg

<svg height="24" viewBox="0 0 24 24" width="24" xmlns="http://www.w3.org/2000/svg"><path d="m19 12v1.5c2.21 0 4 1.79 4 4 0 .82-.25 1.58-.67 2.21l-1.09-1.09c.17-.34.26-.72.26-1.12 0-1.38-1.12-2.5-2.5-2.5v1.5l-2.25-2.25-.03-.03c.06-.05.13-.09 2.28-2.22m0 11v-1.5c-2.21 0-4-1.79-4-4 0-.82.25-1.58.67-2.21l1.09 1.09c-.17.34-.26.72-.26 1.12 0 1.38 1.12 2.5 2.5 2.5v-1.5l2.25 2.25.03.03c-.06.05-.13.09-2.28 2.22m-5.97-5h-7.03c-2.21 0-4-1.79-4-4s1.79-4 4-4h.71c.66-2.31 2.79-4 5.29-4 3 0 5.4 2.37 5.5 5.32.62-.21 1.3-.32 2-.32 1.28 0 2.47.38 3.5 1-.87-1.1-2.16-1.86-3.65-1.97-.68-3.44-3.71-6.03-7.35-6.03-2.89 0-5.4 1.64-6.65 4.03-3.01.33-5.35 2.87-5.35 5.97 0 3.31 2.69 6 6 6h7.5c-.26-.62-.42-1.3-.47-2z"/></svg>

<?xml version="1.0" encoding="UTF-8"?><!DOCTYPE svg PUBLIC "-//W3C//DTD SVG 1.1//EN" "http://www.w3.org/Graphics/SVG/1.1/DTD/svg11.dtd"><svg xmlns="http://www.w3.org/2000/svg" xmlns:xlink="http://www.w3.org/1999/xlink" version="1.1" id="mdi-cloud-sync-outline" width="24" height="24" viewBox="0 0 24 24"><path d="M19 12V13.5C21.21 13.5 23 15.29 23 17.5C23 18.32 22.75 19.08 22.33 19.71L21.24 18.62C21.41 18.28 21.5 17.9 21.5 17.5C21.5 16.12 20.38 15 19 15V16.5L16.75 14.25L16.72 14.22C16.78 14.17 16.85 14.13 19 12M19 23V21.5C16.79 21.5 15 19.71 15 17.5C15 16.68 15.25 15.92 15.67 15.29L16.76 16.38C16.59 16.72 16.5 17.1 16.5 17.5C16.5 18.88 17.62 20 19 20V18.5L21.25 20.75L21.28 20.78C21.22 20.83 21.15 20.87 19 23M13.03 18H6C3.79 18 2 16.21 2 14S3.79 10 6 10H6.71C7.37 7.69 9.5 6 12 6C15 6 17.4 8.37 17.5 11.32C18.12 11.11 18.8 11 19.5 11C20.78 11 21.97 11.38 23 12C22.13 10.9 20.84 10.14 19.35 10.03C18.67 6.59 15.64 4 12 4C9.11 4 6.6 5.64 5.35 8.03C2.34 8.36 0 10.9 0 14C0 17.31 2.69 20 6 20H13.5C13.24 19.38 13.08 18.7 13.03 18Z" /></svg>
